!!!COM: Jules Massenet
!!!CNT: Francais
!!!TXO: Francais
!!!OTL: "Anniversaire"
!!!LYR: Silvestre
!!!OPR: 
!!!OPS: Op. 
!!!ONM: No.
!!!ENC: Emily Thomas
!!!YOR: CD Sheet Music French Art Songs, The Ultimate Collection
!!!YOR: CD Sheet Music, LLC 2003
!!!ODT: 1880/
!!NB: Vocal melody and text encoded.
**kern	**silbe
=1	=1
*clefG2	*
*k[]	*
*M6/8	*
*MM[Lent et triste.]	*
2.r	.
=2	=2
2.r	.
=3	=3
8r	.
{8e	{Le
8a	po-
4cc	-e\-
8b	-te
=4	=4
[2.a	dort:
=5	=5
2.a_	|
=6	=6
4.a]}	|}
8r	.
{8a	{l'oi-
8b	-seau
=7	=7
4.cc#	chan-
4.b	|
=8	=8
*k[f#c#g#]	*
4a}	-te;}
8r	.
4r	.
8r	.
=9	=9
4r	.
{8b	{Mais,
8b	pre\s
8a	du
8g#	po-
=10	=10
8f#	-e\te
8e	en-
8cc#	-dor-
[4.cc#	-mi,
=11	=11
4cc#]}	|}
{8b	{La
8b	voix
8cc#	de
8dd	l'oi-
=12	=12
8ee	-seau
8dd	plus
8cc#	tou-
[4.ee	-chan-
=13	=13
8ee]	|
8ff#	|
8cc#	-te
8dd	Gar-
8cc#	|
8b	-de
=14	=14
8cc#	quel-
8b	|
8a	-que
8g#	cho-
8f#	-se
8e	d'a-
=15	=15
[2.e	-mi.
=16	=16
4e]}	|}
8r	.
4r	.
8r	.
=17	=17
*k[]	*
8r	.
{8e	{Le
8a	po=
4cc#	-e\te
8b	est
=18	=18
[2.a	mort:
=19	=19
2.a_	|
=20	=20
4.a]}	|}
8r	.
{8a	{la
8b	fleur
=21	=21
4.cc#	bril-
4.b	|
=22	=22
*k[f#c#g#]	*
4a}	-le;}
8r	.
4r	.
8r	.
=23	=23
4r	.
{8b	{Mais,
8b	pre\s
8a	du
8g#	po-
=24	=24
4.cc#	-e\
4cc#}	-te,}
8r	.
=25	=25
4r	.
{8b	{la
4ee#	fleur
8cc#	Dans
=26	=26
8een	la
8dd	gou-
8cc#	-te
8ggn	d'eau
8ff#	qui
8ee	scin-
=27	=27
4dd	-til-
8cc#}	-le,}
{8dd	{Gar-
8cc#	|
8b	-de
=28	=28
8cc#	quell-
8b	|
8a	-que
8g#	cho-
8f#	-se
8e	d'un
=29	=29
[2.e	pleur.
=30	=30
4e]}	|}
8r	.
4r	.
8r	.
=31	=31
*k[]	*
8r	.
{8e	{Le
8a	po-
4cc	-e\te
8b	at-
=32	=32
[2.a	-tend:
=33	=33
2.a_	|
=34	=34
4.a]}	|}
8r	.
{8a	{l'au-
8b	-be
=35	=35
4.cc#	veil-
4.b	|
=36	=36
*k[f#c#g#]	*
4a}	-le,}
8r	.
4r	.
8r	.
=37	=37
8r	.
{8b	{Qui,
8a	du
4g#	ciel
8f#	pen-
=38	=38
8f#	-chant
8e	les
8cc#	som-
4cc#	-mets,
8cc#	Lui
=39	=39
8cc#	por-
8b	-te
8a	de
8b	sa
8cc#	main
8dd	ver-
=40	=40
2.ee	-meil-
=41	=41
4ee}	-le}
8r	.
{4ffn	{Le
8ffn	lau-
=42	=42
4.dd	-rier
4ee	qui
8ee	ne
=43	=43
[4.ee	meurt
4ee]	|
8cc#	ja-
=44	=44
[2.cc#	-mais!
=45	=45
2.cc#_	|
=46	=46
4cc#]}	|}
8r	.
4r	.
8r	.
==	==
*-	*-
